X:0316
T:Prince Ferdinands Quick Step.
M:2/4
L:1/16
I: (1) || (2) n|| (1) || (2) || ::
Q:1/4=88
Z:Jack Campin * www.campin.me.uk * 2009
K:D
   f4 f2ga    |g2f2e2d2|A2d2  agfe |   d2A2F2A2|
   f4 f2ga    |g2f2e2d2|A2d2 (agfe)|[1 d4  d4 :|\
                                    [2 d4  d2 ||
fg|afdf a2=c'2|b2a2g2f2|.g2.g2.g2b2|   a2g2f2e2|
   A2d2f2a2   |g2b2e2c2|A2d2 (agfe)|[1 d4  d2 :|\
                                    [2 d4  d4 ||
   A2d2f2a2   |g2b2e2c2|A2d2 (agfe)|   d2A2F2A2|
   A2d2f2a2   |g2b2e2c2|A2d2 (agfe)|   d4  d4 :|
<end>
<start>
